Gruvbox-Plus-Dark/apps/16/authy.svg

<svg width="16" height="16" version="1.1" viewBox="0 0 16 16" xmlns="http://www.w3.org/2000/svg">
  <defs>
    <style type="text/css" id="current-color-scheme">.ColorScheme-Text { color:#ebdbb2; } .ColorScheme-Highlight { color:#458588; }</style>
  </defs>
  <path class="ColorScheme-Text" fill="currentColor" d="m7.047 5.646 2.664 2.664c0.385 0.385 1.009 0.385 1.395 0 0.385-0.386 0.385-1.01 0-1.395l-2.665-2.665c-1.906-1.906-4.987-1.937-6.935-0.096-0.03756 0.03314-0.09832 0.08938-0.148 0.149-1.842 1.947-1.81 5.028 0.096 6.935l2.665 2.664c0.385 0.385 1.009 0.385 1.394 0s0.385-1.01 0-1.394l-2.664-2.665c-1.162-1.163-1.171-3.049-0.024-4.222 1.173-1.146 3.059-1.138 4.222 0.025zm3.44-3.548c-0.386 0.385-0.385 1.009 0 1.394l2.664 2.665c1.163 1.163 1.17 3.049 0.024 4.222-1.173 1.146-3.059 1.138-4.222-0.024l-2.664-2.665c-0.385-0.385-1.01-0.385-1.395 0-0.385 0.386-0.385 1.01 0 1.395l2.664 2.665c1.907 1.906 4.988 1.937 6.935 0.096 0.03426-0.02855 0.09542-0.08471 0.149-0.149 1.842-1.947 1.811-5.028-0.096-6.935l-2.664-2.664c-0.385-0.385-1.01-0.385-1.395 0z"/>
</svg>

<svg xmlns="http://www.w3.org/2000/svg" style="isolation:isolate" width="16" height="16" viewBox="0 0 16 16">
 <defs>
  <style id="current-color-scheme" type="text/css">
   .ColorScheme-Text { color:#ebdbb2; } .ColorScheme-Highlight { color:#458588; }
  </style>
  <linearGradient id="arrongin" x1="0%" x2="0%" y1="0%" y2="100%">
   <stop offset="0%" style="stop-color:#d79921; stop-opacity:1"/>
   <stop offset="100%" style="stop-color:#b57614; stop-opacity:1"/>
  </linearGradient>
  <linearGradient id="aurora" x1="0%" x2="0%" y1="0%" y2="100%">
   <stop offset="0%" style="stop-color:#83a598; stop-opacity:1"/>
   <stop offset="100%" style="stop-color:#b16286; stop-opacity:1"/>
  </linearGradient>
  <linearGradient id="fitdance" x1="0%" x2="0%" y1="0%" y2="100%">
   <stop offset="0%" style="stop-color:#8ec07c; stop-opacity:1"/>
   <stop offset="100%" style="stop-color:#458588; stop-opacity:1"/>
  </linearGradient>
  <linearGradient id="oomox" x1="0%" x2="0%" y1="0%" y2="100%">
   <stop offset="0%" style="stop-color:#458588; stop-opacity:1"/>
   <stop offset="100%" style="stop-color:#928374; stop-opacity:1"/>
  </linearGradient>
  <linearGradient id="rainblue" x1="0%" x2="0%" y1="0%" y2="100%">
   <stop offset="0%" style="stop-color:#b8bb26; stop-opacity:1"/>
   <stop offset="100%" style="stop-color:#076678; stop-opacity:1"/>
  </linearGradient>
  <linearGradient id="sunrise" x1="0%" x2="0%" y1="0%" y2="100%">
   <stop offset="0%" style="stop-color: #fe8019; stop-opacity:1"/>
   <stop offset="100%" style="stop-color: #fabd2f; stop-opacity:1"/>
  </linearGradient>
  <linearGradient id="telinkrin" x1="0%" x2="0%" y1="0%" y2="100%">
   <stop offset="0%" style="stop-color: #83a598; stop-opacity:1"/>
   <stop offset="100%" style="stop-color: #83a598; stop-opacity:1"/>
  </linearGradient>
  <linearGradient id="60spsycho" x1="0%" x2="0%" y1="0%" y2="100%">
   <stop offset="0%" style="stop-color: #fb4934; stop-opacity:1"/>
   <stop offset="25%" style="stop-color: #fabd2f; stop-opacity:1"/>
   <stop offset="50%" style="stop-color: #fe8019; stop-opacity:1"/>
   <stop offset="100%" style="stop-color: #689d6a; stop-opacity:1"/>
  </linearGradient>
  <linearGradient id="90ssummer" x1="0%" x2="0%" y1="0%" y2="100%">
   <stop offset="0%" style="stop-color: #b16286; stop-opacity:1"/>
   <stop offset="20%" style="stop-color: #8ec07c; stop-opacity:1"/>
   <stop offset="50%" style="stop-color: #fabd2f; stop-opacity:1"/>
   <stop offset="100%" style="stop-color: #458588; stop-opacity:1"/>
  </linearGradient>
  <linearGradient id="cyberneon" x1="0%" x2="0%" y1="0%" y2="100%">
    <stop offset="0" style="stop-color:#83a598; stop-opacity:1"/>
    <stop offset="1" style="stop-color:#b16286; stop-opacity:1"/>
  </linearGradient>
 </defs>
 <path style="fill:currentColor" class="ColorScheme-Text" fill-rule="evenodd" d="M 7.047 5.646 L 9.711 8.31 C 10.096 8.695 10.72 8.695 11.106 8.31 C 11.491 7.924 11.491 7.3 11.106 6.915 L 8.441 4.25 C 6.535 2.344 3.454 2.313 1.506 4.154 C 1.489 4.169 1.471 4.185 1.454 4.201 C 1.446 4.21 1.438 4.218 1.43 4.227 C 1.422 4.235 1.413 4.242 1.405 4.25 C 1.388 4.267 1.373 4.285 1.358 4.303 C -0.484 6.25 -0.452 9.331 1.454 11.238 L 4.119 13.902 C 4.504 14.287 5.128 14.287 5.513 13.902 C 5.898 13.517 5.898 12.892 5.513 12.508 L 2.849 9.843 C 1.687 8.68 1.678 6.794 2.825 5.621 C 3.998 4.475 5.884 4.483 7.047 5.646 Z M 10.487 2.098 C 10.101 2.483 10.102 3.107 10.487 3.492 L 13.151 6.157 C 14.314 7.32 14.321 9.206 13.175 10.379 C 12.002 11.525 10.116 11.517 8.953 10.355 L 6.289 7.69 C 5.904 7.305 5.279 7.305 4.894 7.69 C 4.509 8.076 4.509 8.7 4.894 9.085 L 7.558 11.75 C 9.465 13.656 12.546 13.687 14.493 11.846 C 14.511 11.831 14.529 11.816 14.546 11.799 C 14.554 11.79 14.561 11.782 14.57 11.774 C 14.578 11.766 14.587 11.758 14.595 11.75 C 14.612 11.733 14.627 11.715 14.642 11.697 C 16.484 9.75 16.453 6.669 14.546 4.762 L 11.882 2.098 C 11.497 1.713 10.872 1.713 10.487 2.098 L 10.487 2.098 Z"/>
</svg>
